X:565
T:
S:Uppt. efter förre hemmansägaren Gardell i Rodarve, Fardhem.
R:vals
O:Gotland, Fardhem
M:3/4
L:1/8
K:Bb
df|gfdBec|BdFdBd|ceFece|dcBdgf|gfdBec|BdFdBd|ceFece|
B4::de|d2 f2 f2|d2 b2 b2|ac'e'c'ac'|babd'de|d2 f2 f2|d2 b2 b2|ac'e'c'ac'|b4::fe|defec'e|
defec'e|dfbfd'f|dfbfd'f|defec'e|defec'e|debd'c'a|b4:|

